X:1
T:Title
%%score { ( 1 3 ) | ( 2 4 ) }
L:1/8
M:4/4
K:Bb
V:1 treble nm="Grand Piano"
V:3 treble 
V:2 bass 
V:4 bass 
V:1
 z4 z2[Q:1/4=108] [B,D]>[CE] | [DF]2 [DF]2 [EG]2 [DF]2 | [Fd]3 c B2 [DF]2 | [EG]2 [EG]2 [GB]2 B2 | %4
 F6 D>[CE] | [DF]2 [DF]2 [EG]2 [DF]2 | [Fd]3 c B2 [DF]2 | [EG]2 [EA]2 [DB]2 [Fd]2 | c6 c2 | %9
 d3 d c2 A2 | [Dc]2 [DB]4 [DF]2 | [EG]2 [GB]2 [GB]2 [EG]2 | [DF]6 [DF]2 | A3 A B2 c2 | %14
 [Fd]2 [DFB]4 [B,FB]2 | B3 G B2 [Gc]2 | [^Fd]6 e2 | d3 d c2 A2 | z4 [^FA]2 z2 | FGAB d2 c2 | %20
[M:3/4] [B,DB]6 |[M:1/4] z2 |[M:4/4] z2 F>F F>F F2 | d6 z2 | d2 c2 d2 e2 | c6 z2 | e6 z2 | e6 z2 | %28
 e2 d2 e2 f2 | d6 z2 | [FBd]2 [EAc]2 [EAc]2 [Fd]2 | [EFc]2 [DFB]2 [DFB]2 [CFA]2 | %32
 [B,EG]2 [B,EG]2 [CFA]2 [DFB]2 |[M:9/8] [Fc]2 [=Ec]- [Ec] [A,F]2- [A,F] [_EF]2 | %34
[M:4/4] [DFB]2 [B,DF]2 [B,FB]2 c2 | d6 G2 | [=Ec]2 [EG]2 [Gc]2 d2 | =e6 e2 | f2 d2 c2 c2 | %39
 B2 B2 [D^FA]2 [CFA]2 | [B,G]2 [B,EG]2 [CFA]2 [DFB]2 | c2 d2 c2 F2 | d6 z2 | f6 z2 | %44
[M:5/4] [Bd]2 [Gc]2 [Af]3 [Af]3 |[M:3/4] [Bf]6 |] %46
V:2
 z4 z2 [B,,F,]>[B,,F,] | [B,,B,]2 [B,,B,]2 [B,,B,]2 [B,,B,]2 | [B,,B,]3 [F,A,E] [B,D]2 [B,,B,]2 | %3
 [E,B,]2 [E,B,]2 [E,B,]2 [G,B,E]2 | [B,D]6 [B,,B,]>[B,,B,] | [B,,B,]2 [B,,B,]2 [B,,B,]2 [B,,B,]2 | %6
 [B,,B,]3 [F,A,E] [B,D]2 [B,,B,]2 | [E,B,]2 [C,F,]2 [B,,F,]2 [B,,B,]2 | [F,A,F]6 [F,A,F]2 | %9
 [B,F]3 [B,F][K:bass] [F,A,E]2 [F,CE]2 | [B,,B,]2 [B,,F,]4 [B,,B,]2 | %11
 [E,B,]2 [E,E]2 [E,E]2 [E,B,]2 | [B,,B,]6 [B,,B,]2 | [F,CE]3 [F,CE] [G,B,D]2 [F,A,F]2 | %14
 [B,,B,]2 B,,4 D,2 | [E,G,E]3 [E,B,E] [E,G,E]2 [E,G,]2 | [D,A,]6[K:treble] [F,A,F]2 | %17
 [B,F]3 [B,F][K:bass] [F,A,E]2 [F,CE]2 | [G,B,D]2 [G,DG]2[K:bass] .[D,D]2 [E,B,]2 | %19
 [F,A,E][F,B,E][F,CE][F,B,D] [F,B,F]2 [F,A,E]2 |[M:3/4] B,,6 |[M:1/4][K:treble] F2 |[M:4/4] d6 z2 | %23
 z2[K:bass] B,>B, B,>B, [B,D]2 | [B,F]2 [A,CF]2 [B,F]2 [F,CF]2 | [A,F]2 C>[K:bass]B, A,A, z2 | %26
 z2 [F,C]>[F,C] [F,C][F,C] z2 | z2 [F,C]>[F,C] [F,C][F,C] [F,A,]2 | %28
 [A,CF]2 [B,F]2 [F,A,F]2 [A,CF]2 | [B,F]2[K:bass] B,>B, B,B, B,2 | F,2 F,2 F,2 [F,B,]2 | %31
 B,,2 B,,2 B,,2 D,2 | E,2 E,2 C,2 B,,2 |[M:9/8] [F,A,]2 [C,B,]- [C,B,] F,2- F, F,2 | %34
[M:4/4] B,,2 B,,2 D,2[K:treble] [F,A,F]2 | [B,F]6[K:bass] [E,B,E]2 | %36
 [C,B,]2 [C,B,]2 [=E,B,]2[K:treble] [G,=B,G]2 | [CG]6 [B,CG]2 | %38
 [A,CF]2 [B,F]2[K:bass] [F,A,F]2 [F,A,E]2 | [G,D]2 [G,DG]2[K:bass] D,2 D,2 | E,2 E,2 C,2 B,,2 | %41
 [F,A,F]2 [B,F]2[K:bass] [F,A,F]2 [F,A,]2 | [B,F]2 B,>B, B,B, [B,DF]2 | %43
 [F,C]2 [F,E]>[F,D] [F,C][F,C][K:treble] [F,F]2 |[M:5/4] [B,F]2[K:bass] [E,E]2 [F,C]3 [F,E]3 | %45
[M:3/4] [B,D]6 |] %46
V:3
 x8 | x8 | x8 | x8 | x8 | x8 | x8 | x8 | x8 | x8 | x8 | x8 | x8 | x8 | x8 | x8 | x8 | x8 | %18
 B2 B2 z C G2 | x8 |[M:3/4] x6 |[M:1/4] x2 |[M:4/4] x8 | z2 F>F F>F F2 | x8 | z2 A>G FF F2 | %26
 z2 A>A AA F2 | z2 A>A AA F2 | x8 | z2 F>F FF [Fd]2 | x8 | x8 | x8 |[M:9/8] x9 |[M:4/4] x8 | x8 | %36
 x8 | x8 | x8 | x8 | x8 | x8 | z2 F>F FF B2 | A2 c>B AA [Ae]2 |[M:5/4] x10 |[M:3/4] x6 |] %46
V:4
 x8 | x8 | x8 | x8 | x8 | x8 | x8 | x8 | x8 | x4[K:bass] x4 | x8 | x8 | x8 | x8 | x8 | x8 | %16
 x6[K:treble] x2 | x4[K:bass] x4 | x4[K:bass] x4 | x8 |[M:3/4] x6 |[M:1/4][K:treble] x2 | %22
[M:4/4] z2 B,>B, B,>B, z2 | x2[K:bass] x6 | x8 | F,6[K:bass] z2 | x8 | x8 | x8 | x2[K:bass] x6 | %30
 x8 | x8 | x8 |[M:9/8] x9 |[M:4/4] x6[K:treble] x2 | x6[K:bass] x2 | x6[K:treble] x2 | x8 | %38
 x4[K:bass] x4 | x4[K:bass] x4 | x8 | x4[K:bass] x4 | x8 | x6[K:treble] x2 |[M:5/4] x2[K:bass] x8 | %45
[M:3/4] x6 |] %46

